packages/icons/src/graduation-cap.svg

<svg width="24" height="24" viewBox="0 0 24 24" fill="none" xmlns="http://www.w3.org/2000/svg">
<path fill-rule="evenodd" clip-rule="evenodd" d="M11.998 2.5L22.996 8.59092L23 14.3845H20.9912L20.9903 9.83752L19.1272 10.9948L19.1277 18.248L11.9356 21.5L4.934 17.3419L4.93317 11.0121L1 8.59092L11.998 2.5ZM17.1184 12.2424L12.0482 15.3924L6.94195 12.2485V16.1792L12.0603 19.2186L17.1184 16.9314V12.2424ZM11.998 4.77067L5.28955 8.68567L12.0435 13.0644L18.7207 8.69285L11.998 4.77067Z" fill="black"/>
</svg>

<svg xmlns="http://www.w3.org/2000/svg" width="24" height="24" fill="none" viewBox="0 0 24 24">
  <path fill="#000" fill-rule="evenodd" d="m11.998 2.5 10.998 6.09.004 5.794h-2.009V9.838l-1.864 1.157v7.253l-7.19 3.252-7.002-4.158v-6.33L1 8.591 11.998 2.5Zm5.12 9.742-5.07 3.15-5.106-3.143v3.93l5.118 3.04 5.058-2.288v-4.689Zm-5.12-7.471L5.29 8.686l6.753 4.378 6.678-4.371-6.723-3.922Z" clip-rule="evenodd"/>
</svg>
